packages/flutter/assets/icons/calendar.svg

<?xml version="1.0" encoding="UTF-8"?>
<svg width="24px" height="24px" viewBox="0 0 24 24" version="1.1" xmlns="http://www.w3.org/2000/svg" xmlns:xlink="http://www.w3.org/1999/xlink">
    <title>calendar</title>
    <g id="calendar" stroke="none" stroke-width="1" fill="none" fill-rule="evenodd">
        <path d="M11,12.5 C11.2761424,12.5 11.5,12.7238576 11.5,13 L11.5,17 C11.5,17.2761424 11.2761424,17.5 11,17.5 L6,17.5 C5.72385763,17.5 5.5,17.2761424 5.5,17 L5.5,13 C5.5,12.7238576 5.72385763,12.5 6,12.5 L11,12.5 Z M10.5,13.5 L6.5,13.5 L6.5,16.5 L10.5,16.5 L10.5,13.5 Z M20.5,4.5 L20.5,19.5 L3.5,19.5 L3.5,4.5 L4,4.5 C4.27614237,4.5 4.5,4.27614237 4.5,4 C4.5,3.72385763 4.27614237,3.5 4,3.5 L3,3.5 C2.72385763,3.5 2.5,3.72385763 2.5,4 L2.5,20 C2.5,20.2761424 2.72385763,20.5 3,20.5 L21,20.5 C21.2761424,20.5 21.5,20.2761424 21.5,20 L21.5,4 C21.5,3.72385763 21.2761424,3.5 21,3.5 L20,3.5 C19.7238576,3.5 19.5,3.72385763 19.5,4 C19.5,4.27614237 19.7238576,4.5 20,4.5 L20.5,4.5 Z M5.49571356,2.5 L5.49571356,5.5 C5.49571356,5.77614237 5.71957119,6 5.99571356,6 C6.27185594,6 6.49571356,5.77614237 6.49571356,5.5 L6.49571356,2.5 C6.49571356,2.22385763 6.27185594,2 5.99571356,2 C5.71957119,2 5.49571356,2.22385763 5.49571356,2.5 Z M17.4957136,2.5 L17.4957136,5.5 C17.4957136,5.77614237 17.7195712,6 17.9957136,6 C18.2718559,6 18.4957136,5.77614237 18.4957136,5.5 L18.4957136,2.5 C18.4957136,2.22385763 18.2718559,2 17.9957136,2 C17.7195712,2 17.4957136,2.22385763 17.4957136,2.5 Z M8,4.5 L16,4.5 C16.2761424,4.5 16.5,4.27614237 16.5,4 C16.5,3.72385763 16.2761424,3.5 16,3.5 L8,3.5 C7.72385763,3.5 7.5,3.72385763 7.5,4 C7.5,4.27614237 7.72385763,4.5 8,4.5 Z" id="Rectangle" fill="#303846"></path>
    </g>
</svg>

<svg xmlns="http://www.w3.org/2000/svg" width="24" height="24" viewBox="0 0 24 24"><path fill-rule="evenodd" d="M11 12.5a.5.5 0 0 1 .5.5v4a.5.5 0 0 1-.5.5H6a.5.5 0 0 1-.5-.5v-4a.5.5 0 0 1 .5-.5h5zm-.5 1h-4v3h4v-3zm10-9v15h-17v-15H4a.5.5 0 0 0 0-1H3a.5.5 0 0 0-.5.5v16a.5.5 0 0 0 .5.5h18a.5.5 0 0 0 .5-.5V4a.5.5 0 0 0-.5-.5h-1a.5.5 0 1 0 0 1h.5zm-15.004-2v3a.5.5 0 0 0 1 0v-3a.5.5 0 1 0-1 0zm12 0v3a.5.5 0 1 0 1 0v-3a.5.5 0 0 0-1 0zM8 4.5h8a.5.5 0 1 0 0-1H8a.5.5 0 0 0 0 1z"/></svg>
